icons/svg/icons8/umbrella.svg

<svg width="26" height="26" viewBox="0 0 26 26" fill="none" xmlns="http://www.w3.org/2000/svg">
<path d="M7 22C7 23.856 8.218 25 10 25C11.437 25 13 24.335 13 22V15" stroke="#333333" stroke-width="2" stroke-miterlimit="10" stroke-linecap="round" stroke-linejoin="round"/>
<path d="M25.813 15C25.813 15 23.984 13 21.5 13C19.016 13 17 15 17 15C17 15 15.502 13 13 13C10.498 13 9.00001 15 9.00001 15C9.00001 15 6.93901 13 4.50001 13C2.06101 13 0.187012 15 0.187012 15C0.188012 7.924 5.92401 3.188 13 3.188C20.076 3.188 25.813 7.924 25.813 15Z" fill="#333333"/>
<path d="M13 8V1" stroke="#333333" stroke-width="2" stroke-miterlimit="10" stroke-linecap="round" stroke-linejoin="round"/>
</svg>

<?xml version="1.0" encoding="utf-8"?>
<!-- Generator: Adobe Illustrator 15.0.0, SVG Export Plug-In . SVG Version: 6.00 Build 0)  -->
<!DOCTYPE svg PUBLIC "-//W3C//DTD SVG 1.1//EN" "http://www.w3.org/Graphics/SVG/1.1/DTD/svg11.dtd">
<svg version="1.1" id="Layer_1" xmlns="http://www.w3.org/2000/svg" xmlns:xlink="http://www.w3.org/1999/xlink" x="0px" y="0px"
	 width="26px" height="26px" viewBox="0 0 26 26" enable-background="new 0 0 26 26" xml:space="preserve">
<rect fill="none" width="26" height="26"/>
<path fill="none" stroke="#333333" stroke-width="2" stroke-linecap="round" stroke-linejoin="round" stroke-miterlimit="10" d="
	M7,22c0,1.856,1.218,3,3,3c1.437,0,3-0.665,3-3v-7"/>
<path fill="#333333" d="M25.813,15c0,0-1.829-2-4.313-2S17,15,17,15s-1.498-2-4-2s-4,2-4,2s-2.061-2-4.5-2s-4.313,2-4.313,2
	C0.188,7.924,5.924,3.188,13,3.188S25.813,7.924,25.813,15z"/>
<line fill="none" stroke="#333333" stroke-width="2" stroke-linecap="round" stroke-linejoin="round" stroke-miterlimit="10" x1="13" y1="8" x2="13" y2="1"/>
</svg>
